packages/core/src/svgs/tokens/mono/PIXEL.svg

<svg width="24" height="24" viewBox="0 0 24 24" fill="none" xmlns="http://www.w3.org/2000/svg">
<path d="M7.33374 16.6667H12.6669V21.9998H7.33374V16.6667Z" fill="white"/>
<path d="M12.6669 2.00024H14.7536C18.7535 2.00024 22 5.24683 22 9.25333C22 13.2533 18.7535 16.6666 14.7469 16.6666H7.33374V6.6668H12.6669V11.3334H14.7536C16.0668 11.3334 17.3334 10.3134 17.3334 9.00009C17.3334 7.68676 16.0668 6.6668 14.7469 6.6668H12.6669V2.00024Z" fill="white"/>
<path d="M2 11.3333H7.3332V16.6665H2V11.3333Z" fill="white"/>
<path d="M7.33374 11.3333H12.6669V16.6665H7.33374V11.3333Z" fill="white"/>
</svg>

<svg xmlns="http://www.w3.org/2000/svg" width="24" height="24" fill="none" viewBox="0 0 24 24">
    <path fill="#fff" d="M7.334 16.667h5.333V22H7.334zM12.667 2h2.087C18.754 2 22 5.247 22 9.253c0 4-3.247 7.414-7.253 7.414H7.334v-10h5.333v4.666h2.087c1.313 0 2.58-1.02 2.58-2.333s-1.267-2.333-2.587-2.333h-2.08zM2 11.333h5.333v5.333H2z"/>
    <path fill="#fff" d="M7.334 11.333h5.333v5.333H7.334z"/>
</svg>
